propbank/artwork/ic_search_pbexample.svg

<?xml version="1.0" encoding="UTF-8" standalone="no"?><!-- Generator: Adobe Illustrator 14.0.0, SVG Export Plug-In . SVG Version: 6.00 Build 43363)  -->

<svg xmlns:dc="http://purl.org/dc/elements/1.1/" xmlns:cc="http://creativecommons.org/ns#" xmlns:rdf="http://www.w3.org/1999/02/22-rdf-syntax-ns#" xmlns:svg="http://www.w3.org/2000/svg" xmlns="http://www.w3.org/2000/svg"
	xmlns:sodipodi="http://sodipodi.sourceforge.net/DTD/sodipodi-0.dtd" xmlns:inkscape="http://www.inkscape.org/namespaces/inkscape" version="1.1" x="0px" y="0px" width="128" height="64" viewBox="0 0 128 64" enable-background="new 0 0 780 650"
	xml:space="preserve" id="svg4433" inkscape:version="0.91 r13725" sodipodi:docname="ic_search_pbexample.svg"><metadata
     id="metadata5887"><rdf:RDF><cc:Work
         rdf:about=""><dc:format>image/svg+xml</dc:format><dc:type rdf:resource="http://purl.org/dc/dcmitype/StillImage" /><dc:title /></cc:Work></rdf:RDF></metadata>
	<defs id="defs5885"><style
       id="style2988"
       type="text/css">
    .fil0 {fill:#006C3B}
    .fil1 {fill:#77C06C}
   </style>
		<style type="text/css" id="style2988-0">
    .fil0 {fill:#006C3B}
    .fil1 {fill:#77C06C}
   </style></defs>
	<sodipodi:namedview pagecolor="#ffffff" bordercolor="#666666" borderopacity="1" objecttolerance="10" gridtolerance="10" guidetolerance="10" inkscape:pageopacity="0" inkscape:pageshadow="2" inkscape:window-width="1384" inkscape:window-height="885"
		id="namedview5883" showgrid="false" inkscape:zoom="3.2999268" inkscape:cx="70.439592" inkscape:cy="21.049819" inkscape:window-x="209" inkscape:window-y="34" inkscape:window-maximized="0" inkscape:current-layer="svg4433" />
	<g transform="matrix(0.46014345,0,0,0.47008529,12.565709,-9.8550275)" id="g4746" />
	<g transform="matrix(1.5338115,0,0,1.566951,-39.27712,-111.07693)" id="g4767" />
	<g transform="matrix(1.5338115,0,0,1.566951,-2.4656437,-111.07693)" id="g4847" />
	<g transform="matrix(1.5338115,0,0,1.566951,-19.33757,-142.41595)" id="g4855" />
	<g id="g21649" transform="matrix(0.32716341,0,0,0.32716341,-102.86075,120.35671)"><path
       style="fill:#dcdcdc;fill-opacity:1;fill-rule:nonzero;stroke:none"
       d="M 74.632812 2.6484375 L 74.632812 59.695312 L 121.16211 59.695312 L 121.16211 2.6484375 L 109.94336 2.6484375 L 74.632812 2.6484375 z M 80.814453 13.208984 L 114.91602 13.208984 L 114.91602 20.695312 L 80.814453 20.695312 L 80.814453 13.208984 z M 80.814453 26.951172 L 114.91602 26.951172 L 114.91602 34.435547 L 80.814453 34.435547 L 80.814453 26.951172 z M 80.814453 42 L 114.91602 42 L 114.91602 49.486328 L 80.814453 49.486328 L 80.814453 42 z "
       transform="matrix(3.0565765,0,0,3.0565765,314.40175,-367.87949)"
       id="path820" /></g>
	<g transform="matrix(0.71799222,0,0,0.73350513,-244.19255,-54.66643)" id="g4746-3" />
	<g transform="matrix(2.3933074,0,0,2.4450171,-325.08634,-212.60965)" id="g4767-7" />
	<g transform="matrix(2.3933074,0,0,2.4450171,-267.64696,-212.60965)" id="g4847-9" />
	<g transform="matrix(2.3933074,0,0,2.4450171,-293.97334,-261.50999)" id="g4855-0" />
	<g style="font-style:normal;font-variant:normal;font-weight:bold;font-stretch:normal;font-size:65.47507477px;line-height:125%;font-family:Sans;-inkscape-font-specification:'Sans Bold';text-align:start;letter-spacing:0px;word-spacing:0px;writing-mode:lr-tb;text-anchor:start;fill:#ffe4e1;fill-opacity:1;stroke:none;stroke-opacity:1"
		id="g8102" transform="matrix(0.64374093,0,0,0.64374093,228.59688,114.77019)" />
	<text xml:space="preserve"
		style="font-style:normal;font-variant:normal;font-weight:normal;font-stretch:normal;font-size:15px;line-height:100%;font-family:'DejaVu Sans';-inkscape-font-specification:'DejaVu Sans, Normal';text-align:start;letter-spacing:0px;word-spacing:0px;writing-mode:lr-tb;text-anchor:start;fill:#000000;fill-opacity:1;stroke:none;stroke-width:1px;stroke-linecap:butt;stroke-linejoin:miter;stroke-opacity:1"
		x="9.0911112" y="172.79028" id="text8116" sodipodi:linespacing="100%"><tspan
       sodipodi:role="line"
       id="tspan8118"
       x="9.0911112"
       y="172.79028" /></text>
	<g transform="matrix(0.46014345,0,0,0.47008529,23.635243,56.466736)" id="g4746-2" />
	<g transform="matrix(1.5338115,0,0,1.566951,-28.207586,-44.755167)" id="g4767-9" />
	<g transform="matrix(1.5338115,0,0,1.566951,8.6038903,-44.755167)" id="g4847-7" />
	<g transform="matrix(1.5338115,0,0,1.566951,-8.268036,-76.094187)" id="g4855-5" />
	<g id="g8095" style="stroke:none" transform="matrix(0.73327131,0,0,0.73327131,-2.9310499,-704.22883)"><path
       style="color:#000000;fill:#dcdcdc;stroke:none;stroke-width:10;stroke-miterlimit:4;stroke-dasharray:none;stroke-opacity:1"
       d="m -35.84375,64.966797 a 31.284223,31.565657 0 0 0 -32.197266,31.550781 31.284223,31.565657 0 0 0 62.5683598,0 A 31.284223,31.565657 0 0 0 -35.84375,64.966797 Z m -15.308594,14.582031 15.228516,0 c 4.528341,0 8.0009,1.009451 10.416016,3.027344 2.431003,2.002003 3.646484,4.862072 3.646484,8.580078 0,3.733895 -1.215481,6.609061 -3.646484,8.626953 -2.415116,2.002007 -5.887675,3.003907 -10.416016,3.003907 l -6.052734,0 0,12.3457 -9.175782,0 0,-35.583982 z m 9.175782,6.650391 0,9.9375 5.076171,0 c 1.779559,0 3.153823,-0.429108 4.123047,-1.28711 0.969224,-0.87389 1.453125,-2.104467 1.453125,-3.693359 0,-1.588891 -0.483901,-2.811921 -1.453125,-3.669922 -0.969224,-0.858002 -2.343488,-1.287109 -4.123047,-1.287109 l -5.076171,0 z"
       transform="matrix(1.3506482,0,0,1.3506482,97.743853,874.04499)"
       id="path8097"
       inkscape:connector-curvature="0" /></g>
	<g style="font-style:normal;font-variant:normal;font-weight:bold;font-stretch:normal;font-size:41.96130753px;line-height:125%;font-family:Sans;-inkscape-font-specification:'Sans, Bold';text-align:start;letter-spacing:0px;word-spacing:0px;writing-mode:lr-tb;text-anchor:start;fill:#f5f5f5;fill-opacity:1;stroke:none"
		id="text8088" transform="translate(-47.719649,84.503984)" />
	<g transform="matrix(0.71799222,0,0,0.73350513,-106.00766,-25.87791)" id="g4746-4" />
	<g transform="matrix(2.3933074,0,0,2.4450171,-186.90145,-183.82113)" id="g4767-6" />
	<g transform="matrix(2.3933074,0,0,2.4450171,-129.46207,-183.82113)" id="g4847-3" />
	<g transform="matrix(2.3933074,0,0,2.4450171,-155.78845,-232.72147)" id="g4855-7" /></svg>

<svg xmlns="http://www.w3.org/2000/svg" xml:space="preserve" width="128" height="64"><path d="M74.633 2.648v57.047h46.53V2.648h-46.53zm6.181 10.561h34.102v7.486H80.814V13.21zm0 13.742h34.102v7.485H80.814V26.95zm0 15.049h34.102v7.486H80.814V42z" style="fill:#dcdcdc;fill-opacity:1;fill-rule:nonzero;stroke:none"/><text xml:space="preserve" x="9.091" y="172.79" style="font-style:normal;font-variant:normal;font-weight:400;font-stretch:normal;font-size:15px;line-height:100%;font-family:&quot;DejaVu Sans&quot;;-inkscape-font-specification:&quot;DejaVu Sans, Normal&quot;;text-align:start;letter-spacing:0;word-spacing:0;writing-mode:lr-tb;text-anchor:start;fill:#000;fill-opacity:1;stroke:none;stroke-width:1px;stroke-linecap:butt;stroke-linejoin:miter;stroke-opacity:1"/><g style="stroke:none"><path d="M-35.844 64.967a31.284 31.566 0 0 0-32.197 31.55 31.284 31.566 0 0 0 62.568 0 31.284 31.566 0 0 0-30.37-31.55Zm-15.308 14.582h15.228c4.529 0 8.001 1.01 10.416 3.027 2.431 2.002 3.647 4.862 3.647 8.58 0 3.734-1.216 6.61-3.647 8.627-2.415 2.002-5.887 3.004-10.416 3.004h-6.053v12.346h-9.175V79.549zm9.175 6.65v9.938h5.077c1.78 0 3.153-.43 4.123-1.287.969-.874 1.453-2.105 1.453-3.694s-.484-2.812-1.453-3.67c-.97-.858-2.344-1.287-4.123-1.287h-5.077z" style="color:#000;fill:#dcdcdc;stroke:none;stroke-width:10;stroke-miterlimit:4;stroke-dasharray:none;stroke-opacity:1" transform="translate(68.742 -63.317)scale(.99039)"/></g></svg>
